X:135
T:Spithead Fleet THO1.135
M:6/8
L:1/8
Z:vmp. Peter Dunk 2012.from a transcription by Fynn Titford-Mock 2006
B:Thompson's Compleat Collection of 200 Favourite Country Dances Vol.I,1758
Q:3/8=100
K:Bb
G/F/|DGA Bcd|cAF TF2 A|BGA Bdg|fdB TB2 a|\
bag fdd|fdd ecc|f g2 fdc|BGG G2:|
|:d|gfg def|Bcd Tf2 d|gfe dcB|gfe d2 a|\
bag fdd|fdd ecc|f g2 fdc|BGG G2:|

